playstation.svg

<svg viewBox="0 0 24 24" xmlns="http://www.w3.org/2000/svg"><path d="M0.485276 16.2571C-0.414094 16.8549-0.112596 17.996 1.80444 18.5358C3.81202 19.2043 5.95318 19.369 8.03939 19.0154C8.15939 19.0154 8.27939 18.9556 8.33832 18.9556L8.33832 16.9164L6.29958 17.5762C5.52021 17.8162 4.74041 17.8752 3.96105 17.6962C3.36317 17.5164 3.48147 17.1564 4.20105 16.8566L8.34088 15.4158L8.34088 13.1951L2.58423 15.1741C1.83339 15.4258 1.12553 15.791 0.485276 16.2571ZM14.3973 7.26208L14.3973 13.0789C16.8559 14.2781 18.775 13.0789 18.775 9.96147C18.775 6.78336 17.6357 5.34419 14.3375 4.20482C12.5986 3.60695 10.7994 3.06545 8.9994 2.70587L8.9994 20.0348L13.1969 21.2941L13.1969 6.72229C13.1969 6.06249 13.1969 5.58291 13.6765 5.7627C14.3375 5.94292 14.3973 6.60229 14.3973 7.26208ZM22.1931 14.8777C20.4542 14.2798 18.5952 14.0381 16.7961 14.2179C15.8365 14.2777 14.9371 14.5168 14.0975 14.8158L13.9177 14.8755L13.9177 17.2141L17.8154 15.7749C18.5948 15.5349 19.3746 15.476 20.154 15.6549C20.7518 15.8347 20.6336 16.1947 19.914 16.4945L13.9173 18.7152L13.9173 20.9939L22.1931 17.9354C22.791 17.6954 23.3325 17.3956 23.8121 16.916C24.2319 16.3168 24.0521 15.4773 22.1931 14.8777Z" fill="#0070d1"/></svg>

<svg viewBox="0 0 24 24" xmlns="http://www.w3.org/2000/svg"><path d="M.485 16.257c-.9.598-.598 1.739 1.32 2.279 2.007.668 4.148.833 6.234.48.12 0 .24-.06.3-.06v-2.04l-2.04.66c-.779.24-1.559.3-2.338.12-.598-.18-.48-.54.24-.84l4.14-1.44v-2.22l-5.757 1.978a7.753 7.753 0 0 0-2.099 1.083Zm13.912-8.995v5.817c2.459 1.2 4.378 0 4.378-3.118 0-3.178-1.14-4.617-4.437-5.756-1.74-.598-3.539-1.14-5.339-1.5v17.33l4.198 1.26V6.721c0-.66 0-1.14.48-.96.66.18.72.84.72 1.5Zm7.796 7.616c-1.739-.598-3.598-.84-5.397-.66-.96.06-1.859.299-2.698.598l-.18.06v2.338l3.897-1.44c.78-.24 1.56-.298 2.339-.12.598.18.48.54-.24.84l-5.997 2.221v2.279l8.276-3.059c.598-.24 1.14-.54 1.62-1.019.419-.6.24-1.439-1.62-2.038Z" fill="#0070d1"/></svg>
